apps/documenteditor/main/resources/img/toolbar/2.5x/big/btn-review-deny.svg

<svg width="28" height="28" viewBox="0 0 28 28" fill="none" xmlns="http://www.w3.org/2000/svg">
<path fill-rule="evenodd" clip-rule="evenodd" d="M4 17H13V18H4C3.4 18 3 17.6 3 17V6C3 5.4 3.4 5 4 5H21C21.6 5 22 5.4 22 6V12H21V6H4V17ZM7 9H18V10H7V9ZM11 12H7V13H11V12ZM14.3001 12.0342L19.0001 16.7342L23.7001 12.0342L24.9658 13.2998L20.2658 17.9999L24.9658 22.6999L23.7001 23.9655L19.0001 19.2656L14.3001 23.9655L13.0344 22.6999L17.7344 17.9999L13.0344 13.2998L14.3001 12.0342Z" fill="black"/>
</svg>

<svg xmlns="http://www.w3.org/2000/svg" width="28" height="28" fill="none"><path fill="#000" d="m24.966 13.3-4.7 4.7 4.7 4.7-1.266 1.266-4.7-4.7-4.7 4.7-1.266-1.266 4.7-4.7-4.7-4.7 1.266-1.266 4.7 4.7 4.7-4.7 1.266 1.266Z"/><path fill="#000" d="M21 5c.6 0 1 .4 1 1v6h-1V6H4v11h9v1H4c-.6 0-1-.4-1-1V6c0-.6.4-1 1-1h17Z"/><path fill="#000" d="M11 13H7v-1h4v1Zm7-3H7V9h11v1Z"/></svg>
